X:1
T:I Do Not Know How
T:Helen Howarth Lemmel, 1921
T:I Do Not Know How
T:Public Domain
T:Public Domain
T:Public Domain
C:Helen Howarth Lemmel, 1921
Z:Public Domain
%%score ( 1 2 ) ( 3 4 )
L:1/8
M:4/4
K:G
V:1 treble 
V:2 treble 
V:3 bass 
V:4 bass 
V:1
"^Not too fast" [B,D]2 | [B,D]2 [DB]2 [EB]2 [^Ed]2 | [Fd]2 [DF]2 [CF]2 [CE]2 | %3
w: 1.~I|do not know how|Ad- am’s sin Lives|
w: 2.~I|do not know how|God could give U-|
w: 3.~I|do not know how|God could lay My|
w: 4.~I|do not know how|God could call His|
w: 5.~I|do not know how|Je- sus’ blood Can|
w: 6.~I|do not know how|one day He Can|
 [CE]2 [CD]2 [CA]2 [^C^A]2 | [DB]6 [CD]2 | [B,D]2 [DB]2 [EB]2 [^Ed]2 | [Fd]2 [DA]2 [DA]2 [^DB]2 | %7
w: on in you and|me, Nor|how it caus- es|all the wrong And|
w: nto a maid- en|fair, His|ho- ly Son, in|Beth- l’hem born, His|
w: sins up- on His|Son, Nor|how, on Cal- v’ry’s|cross, for me He|
w: Son from out the|grave, Nor|how that way to|me His Ev- er-|
w: cleanse my heart from|sin, Nor|how, by faith, in|ev- ’ry fight The|
w: come to earth a-|gain, Nor|how like Him I|shall be made, And|
 [EG]2 [EG]2 [^CF]2 [CE]2 | D6 ||"^Refrain" B,C | [B,D][B,E][B,F][B,G] [DA][DG][DF][DE] | %11
w: sor- row that we|see.|||
w: bed a man- ger|bare.|||
w: per- fect par- don|won.|I read|God’s Word, and I be- lieve it; Yes,|
w: last- ing life He|gave.|||
w: vic- t’ry I may|win.|||
w: ev- er with Him|reign.|||
 [CG]2 [CF]3 [CE][CE][B,G] | [CG]2 [CF]3 [CE][CE][CE] | [CE]2 [B,D]2 z3 | %14
w: |||
w: |||
w: I be- lieve it, ful-|ly be- lieve it! I|read it|
w: |||
w: |||
w: |||
 DEFG B!ff![^Ge][Ed][Ec][EG] | [DB]2 [CA]3 [CE][CE][Ec] | [Dc]2 [DF]2 [FB]2 [FA]2 | [DG]8 |] %18
w: ||||
w: ||||
w: in God’s Word, and I be- lieve it, And|to do. * * *|||
w: ||||
w: ||||
w: ||||
V:2
 x2 | x8 | x8 | x8 | x8 | x8 | x8 | x8 | D6 || B,C | x8 | x8 | x8 | x7 | DEF^G B x4 | x8 | x8 | %17
w: |||||||||||||||||
w: |||||||||||||||||
w: ||||||||But|it in|||||that is all I need|||
 x8 |] %18
w: |
w: |
w: |
V:3
 G,2 | G,2 =G,2 =G,2 [^G,B,]2 | [A,C]2 [D,A,]2 [D,A,]2 [D,G,]2 | [D,G,]2 [D,F,]2 [D,F,]2 [D,F,]2 | %4
 G,,2 B,,2 D,2 [F,A,]2 | G,2 =G,2 =G,2 [^G,B,]2 | A,2 [D,F,]2 [D,F,]2 [B,,F,]2 | %7
 [E,G,]2 [E,B,]2 [A,,A,]2 [A,,G,]2 | [D,F,]6 || [D,G,][D,A,] | %10
 [G,,G,][G,,G,][G,,G,][G,,G,] [G,B,][G,B,][B,,G,][B,,G,] | [A,,D,]2 [D,A,]3 D,D,D, | %12
 A,2 [D,A,]2 D2 [D,D][D,D] | G,2 [D,G,]2 G,,3 | D,E,F,G, B,[E,B,][^G,B,]A,[E,B,] | %15
 A,2 [E,A,]2 A,,[C,A,][C,A,][C,A,] | [D,F,]2 [D,A,]2 [D,D]2 [D,C]2 | [G,,G,B,]8 |] %18
V:4
 G,2 | ^G,2 ^G,2 ^G,2 x2 | x8 | x8 | G,6 x2 | ^G,2 ^G,2 ^G,2 x2 | A,2 x6 | x8 | x6 || x2 | x8 | %11
 x5 D,D,D, | A,2 D2 x4 | x7 | D,E,F,^G, B, x A, x2 | A,2 x6 | x8 | x8 |] %18

